X:849
T: Jaj de szépen harangoznak
Q:1/4=112
M:1/4
L:1/4
K:G
d2 c2 | B c d<A | G2 G z |
a2 g2 | f g a<e | d2 d z |
d e f<g | d B d G |
d2 c2 | e e (3:2:2 d A2 | G2 G z |

